X:1
T:Das Lied von der Liebe
T:Andreas Zöllner
T:Friedrich Konrad Müller
T:Das Lied von der Liebe
T:CPDL   —   Creative Commons Attribution Non Commercial 3.0
T:CPDL   —   Creative Commons Attribution Non Commercial 3.0
C:Andreas Zöllner
Z:Friedrich Konrad Müller
Z:CPDL   —   Creative Commons Attribution Non Commercial 3.0
%%score [ ( 1 2 3 4 ) ( 5 6 7 8 ) ]
L:1/8
Q:1/4=80
M:3/4
K:Bb
V:1 treble-8 nm="Tenor"
V:2 treble-8 
V:3 treble-8 
V:4 treble-8 
V:5 bass nm="Bass"
V:6 bass 
V:7 bass 
V:8 bass 
V:1
"^Andantino"!p! d3 ^c d2 | e>f e2 z2 |!<(! e2!<)!!>(! f3!>)! e | d>g f2 z2 |!<(! f3 f f2!<)! | %5
w: 1.  Lie- be durch-|bebt das Herz|lei- se mit|ban- gem Schmerz,|fül- let die|
w: 2.  Wenn dein Blick|auf mir ruht,|bin ich stets|wohl- ge- mut,|wird mir so|
w: 3.  Sehn- sucht und|sü- ße Qual|durch- zieht mich|all- zu- mal,|bist du, mein|
w: 4.  Dro- ben im|Ster- nen- kreis|strahlt dir die|Lie- be heiß; *4|bli- cke nur|
 f=e de f2 |!f! d>g!>(! f2 =e2 | f2!>)! z2 z2 |!p! (c3!<(! d) e!<)!!>(! g/f/!>)! | f3 e d2 | %10
w: stil- * le * Brust|won- * nig mit|Lust!|Wo _ sie nur _|im- mer weilt,|
w: weh, _ so * wohl,|Lieb- * chen, so|wohl. *3|E- * wig bei _|dir, bei dir,|
w: treu- * er * Stern,|bist * du mir|fern!|Trau- * rig ist _|mein Ge- müt,|
w: him- * mel- * wärts,|quält * dich ein|Schmerz!|Hol- * de, ver- *|za- ge nicht,|
!mf! d2!>(! g3 f!>)! | e>d c2 z2 |!p! c3 c c2 |!<(! ^c>c c4!<)! | (d2 cd)!>(! ef!>)! | %15
w: se- lig Ge-|füh- le teilt, *1|dort ist E-|ly- si- um,|ly- * * si- *|
w: ist ja mein|Wunsch nur hier;|wie das Ge-|schick auch sei,|bleib' dir _ stets _|
w: wenn dich mein|Aug' nicht sieht,|wo du weilst|ist mein Sinn,|flieht nur _ dort- *|
w: wann einst mein|Au- ge bricht,|drü- ben ist|Wie- der- sehn,|ach, wie _ so _|
 d2!<(! d2 ef | e>e!<)! =e4 |!>(! f4 (e!>)!c) | B2 z2 z2 |] %19
w: um, dort ist E-|ly- si- um,|ly- si- *|um! *2|
w: treu, wie das Ge-|schick auch sei,|bleib' dir stets|treu!|
w: hin, wo du weilst|ist mein Sinn,|flieht nur dort-|hin!|
w: schön, drü- ben ist|Wie- der- sehn,|ach, wie so|schön!|
V:2
 B3 B B2 | B>=B c2 x2 | c2 c3 c | B>e d2 x2 | d3 d c2 | B3 B A2 | B>d c2 c2 | c2 x2 x2 | %8
 (A3 B) c e/d/ | d3 c B2 | =B2 d3 d | c>=B c2 x2 | c3 c c2 | _B>B B4 | (B2 AB) cA | B2 B2 cd | %16
 e>e _d4 | =d4 A-A | B2 x2 x2 |] %19
V:3
 x6 | x6 | x6 | x6 | x6 | x6 | x6 | x6 | x6 | x6 | x6 | x6 | x6 | x2 ^c3 B | x6 | x6 | x2 =e3 e | %17
w: ||||||||||||||||* E-|
 x6 | x6 |] %19
w: ||
V:4
 x6 | x6 | x6 | x6 | x6 | x6 | x6 | x6 | x6 | x6 | x6 | x6 | x6 | x2 B3 B | x6 | x6 | x2 _d3 d | %17
w: |||||||||||||* E-||||
 x6 | x6 |] %19
w: ||
V:5
!p! F,3 =E, F,^F, | G,>G, G,2 z2 |!<(! G,2!<)!!>(! F,3!>)! F, | F,>B, B,2 z2 |!<(! B,3 B, A,2 | %5
!<(! G,3 G,!<)! F,2!<)! |!f! G,2!>(! A,2 G,B, | A,2!>)! z2 z2 |!p! F,4!<(! F,!<)!!>(!F,!>)! | %9
 F,3 A, B,2 |!mf! G,2!>(! G,3 G,!>)! | G,>G, G,2 z2 |!p! G,3 G, G,2 |!<(! G,>G, G,4!<)! | %14
 F,2- F,2!>(! F,2!>)! | F,2!<(! B,2 CB, | B,>B,!<)! B,4 |!>(! B,4 (F,!>)!E,) | D,2 z2 z2 |] %19
V:6
 B,,3 B,, B,,2 | E,>D, C,2 x2 | C,2 A,,3 A,, | B,,>B, B,2 x2 | z6 | C,C,/C,/ C,^C, D,2 | %6
w: |||||fül- let die stil- le Brust|
w: |||||wird mit so weh, so wohl,|
w: |||||bist du, mein treu- er Stern,|
w: |||||bli- cke nur him- mel- wärts,|
 B,,2 =C,2 C,2 | F,2 x2 x2 | z6 | B,,B,,/B,,/ D,F, B,_A, | G,2 =B,,3 B,, | C,>F, E,2 x2 | %12
w: |||Wo sie nur im- mer weilt, _|_ _ _||
w: |||E- wig bei dir, bei dir, _|_ _ _||
w: |||Trau- rig ist mein Ge- müt, _|_ _ _||
w: |||Hol- de, ver- za- ge nicht, _|_ _ _||
 E,3 E, E,2 | =E,>E, E,4 | F,2- F,2 F,,2 | B,,2 B,2 =A,_A, | G,>G, _G,4 | F,4 F,,-F,, | %18
w: ||||||
w: ||||||
w: ||||||
w: ||||||
 B,,2 x2 x2 |] %19
w: |
w: |
w: |
w: |
V:7
 x6 | x6 | x6 | x6 | x6 | x6 | x6 | x6 | x6 | x6 | x6 | x6 | x6 | x2 G,3 G, | x6 | x6 | x2 B,3 B, | %17
 x6 | x6 |] %19
V:8
 x6 | x6 | x6 | x6 | x6 | x6 | x6 | x6 | x6 | x6 | x6 | x6 | x6 | x2 =E,3 E, | x6 | x6 | %16
 x2 _G,3 G, | x6 | x6 |] %19

